Newaita-dark/apps/48/system-run.svg

<svg height="48pt" viewBox="0 0 48 48" width="48pt" xmlns="http://www.w3.org/2000/svg" xmlns:xlink="http://www.w3.org/1999/xlink"><linearGradient id="a" gradientUnits="userSpaceOnUse" x1="23.81478" x2="23.81478" y1="42.0509015" y2="44.03546750005"><stop offset="0" stop-opacity=".27451"/><stop offset="1" stop-opacity="0"/></linearGradient><linearGradient id="b"><stop offset="0" stop-opacity=".313726"/><stop offset=".222222" stop-opacity=".27451"/><stop offset="1" stop-opacity="0"/></linearGradient><radialGradient id="c" cx="450.908936" cy="189.579361" gradientTransform="matrix(.00000026 -.117199 -.210958 -.00000015 80.180537 95.392996)" gradientUnits="userSpaceOnUse" r="21.166656" xlink:href="#b"/><radialGradient id="d" cx="450.908936" cy="189.579361" gradientTransform="matrix(-.00000026 .117199 .210958 .00000015 -32.550992 -11.291221)" gradientUnits="userSpaceOnUse" r="21.166656" xlink:href="#b"/><radialGradient id="e" cx="450.908936" cy="189.579361" gradientTransform="matrix(-.00000026 -.117199 .210958 -.00000015 -32.550992 95.392996)" gradientUnits="userSpaceOnUse" r="21.166656" xlink:href="#b"/><radialGradient id="f" cx="450.908936" cy="189.579361" gradientTransform="matrix(.00000026 .117199 -.210958 .00000015 80.180534 -11.291222)" gradientUnits="userSpaceOnUse" r="21.166656" xlink:href="#b"/><linearGradient id="g" gradientTransform="matrix(.113024 0 0 .326118 -8.78102 50.462022)" gradientUnits="userSpaceOnUse" x1="306.916656" x2="305.954559" y1="-25.791676" y2="-135.329163"><stop offset="0" stop-color="#bdbdbd"/><stop offset="1" stop-color="#e0e0e0"/></linearGradient><linearGradient id="h"><stop offset="0" stop-color="#424242"/><stop offset="1" stop-color="#616161"/></linearGradient><linearGradient id="i" gradientTransform="matrix(4.556143 0 0 13.146184 -353.972656 2034.180176)" gradientUnits="userSpaceOnUse" x1="306.916656" x2="305.954559" xlink:href="#h" y1="-25.791676" y2="-135.329163"/><linearGradient id="j" gradientUnits="userSpaceOnUse" x1="333.37491775" x2="333.37491775" y1="-121.04159691667" y2="-89.29164325"><stop offset="0" stop-color="#66bb6a"/><stop offset="1" stop-color="#81c784"/></linearGradient><linearGradient id="k" gradientUnits="userSpaceOnUse" x1="386.29151025" x2="386.29151025" y1="-121.04167408333" y2="-89.29163575"><stop offset="0" stop-color="#ffd54f"/><stop offset="1" stop-color="#ffe082"/></linearGradient><linearGradient id="l" gradientUnits="userSpaceOnUse" x1="439.208298" x2="439.208298" y1="-121.041682" y2="-89.291686"><stop offset="0" stop-color="#e57373"/><stop offset="1" stop-color="#ef9a9a"/></linearGradient><linearGradient id="m" gradientUnits="userSpaceOnUse" x1="23.850107" x2="23.850107" xlink:href="#h" y1="35.60379462499" y2="20.7195545001"/><path d="m6.945312 42.050781h33.738282v1.984375h-33.738282zm0 0" fill="url(#a)"/><path d="m40.683594 42.050781h3.96875v-1.984375h-3.96875zm0 0" fill="url(#c)"/><path d="m6.945312 42.050781h-3.96875v1.984375h3.96875zm0 0" fill="url(#d)"/><path d="m6.945312 42.050781h-3.96875v-1.984375h3.96875zm0 0" fill="url(#e)"/><path d="m40.683594 42.050781h3.96875v1.984375h-3.96875zm0 0" fill="url(#f)"/><path d="m4.960938 6.328125h37.707031c1.097656 0 1.984375.890625 1.984375 1.984375v31.753906c0 1.097656-.886719 1.984375-1.984375 1.984375h-37.707031c-1.09375 0-1.984376-.886719-1.984376-1.984375v-31.753906c0-1.09375.890626-1.984375 1.984376-1.984375zm0 0" fill="url(#g)"/><path d="m2.976562 14.265625h41.675782v.992187h-41.675782zm0 0" fill="#0a0d0e" fill-opacity=".235294"/><path d="m4.960938 42.070312c-1.097657 0-1.984376-.886718-1.984376-1.984374v-.515626c0 1.097657.886719 1.984376 1.984376 1.984376h37.707031c1.101562 0 1.984375-.886719 1.984375-1.984376v.515626c0 1.097656-.882813 1.984374-1.984375 1.984374zm0 0" fill-opacity=".235294"/><path d="m199.980913 255.093763c-44.247745 0-79.992365 35.74462-79.992365 79.992366v239.977096h1679.997137v-239.977096c0-44.247746-35.587155-79.992366-79.992365-79.992366zm0 0" fill="url(#i)" stroke="#212121" stroke-linecap="round" stroke-width="11.338583" transform="scale(.0248071)"/><path d="m4.960938 6.441406c-1.097657 0-1.984376.886719-1.984376 1.988282v.515624c0-1.101562.886719-1.984374 1.984376-1.984374h37.707031c1.101562 0 1.984375.882812 1.984375 1.984374v-.515624c0-1.101563-.882813-1.988282-1.984375-1.988282zm0 0" fill="#fff" fill-opacity=".392157"/><path d="m4.960938 6.1875c-1.175782 0-2.125.949219-2.125 2.125v31.753906c0 1.175782.949218 2.125 2.125 2.125h37.707031c1.175781 0 2.125-.949218 2.125-2.125v-31.753906c0-1.175781-.949219-2.125-2.125-2.125zm0 .28125h37.707031c1.023437 0 1.84375.820312 1.84375 1.84375v31.753906c0 1.023438-.820313 1.84375-1.84375 1.84375h-37.707031c-1.023438 0-1.84375-.820312-1.84375-1.84375v-31.753906c0-1.023438.820312-1.84375 1.84375-1.84375zm0 0" fill="#212121"/><g stroke="#212121" stroke-linecap="round" stroke-width="3"><path d="m333.38483-121.050638c8.749165 0 15.873484 7.124319 15.873484 15.873484 0 8.790827-7.124319 15.873484-15.873484 15.873484-8.790827 0-15.873484-7.082657-15.873484-15.873484 0-8.749165 7.082657-15.873484 15.873484-15.873484zm0 0" fill="url(#j)" transform="matrix(.093759 0 0 .093759 0 20.158175)"/><path d="m386.296444-121.050638c8.749164 0 15.873484 7.124319 15.873484 15.873484 0 8.790827-7.12432 15.873484-15.873484 15.873484-8.790827 0-15.873484-7.082657-15.873484-15.873484 0-8.749165 7.082657-15.873484 15.873484-15.873484zm0 0" fill="url(#k)" transform="matrix(.093759 0 0 .093759 0 20.158175)"/><path d="m439.208058-121.050638c8.749164 0 15.873484 7.124319 15.873484 15.873484 0 8.790827-7.12432 15.873484-15.873484 15.873484-8.749165 0-15.873484-7.082657-15.873484-15.873484 0-8.749165 7.124319-15.873484 15.873484-15.873484zm0 0" fill="url(#l)" transform="matrix(.093759 0 0 .093759 0 20.158175)"/></g><path d="m19.914062 20.726562c-.558593-.019531-1.019531.425782-1.019531.984376v12.902343c0 .761719.832031 1.238281 1.488281.847657l10.914063-6.449219c.648437-.382813.648437-1.316407 0-1.699219l-10.914063-6.449219c-.140624-.085937-.304687-.132812-.46875-.136719zm0 0" fill="url(#m)"/><path d="m19.863281 20.722656c-.535156.011719-.96875.449219-.96875.988282v.492187c0-.558594.460938-1.007813 1.019531-.988281.164063.007812.328126.054687.46875.136718l10.914063 6.449219c.242187.144531.394531.367188.457031.605469.101563-.402344-.050781-.855469-.457031-1.09375l-10.914063-6.449219c-.140624-.085937-.304687-.132812-.46875-.136719-.015624-.003906-.035156-.003906-.050781-.003906zm0 0" fill="#fff" fill-opacity=".313726"/><path d="m19.863281 35.605469c-.535156-.011719-.96875-.449219-.96875-.988281v-.492188c0 .558594.460938 1.007812 1.019531.988281.164063-.007812.328126-.054687.46875-.136719l10.914063-6.449218c.242187-.144532.394531-.367188.457031-.605469.101563.402344-.050781.855469-.457031 1.09375l-10.914063 6.449219c-.140624.085937-.304687.132812-.46875.136718-.015624.003907-.035156.003907-.050781.003907zm0 0" fill-opacity=".235294"/><path d="m19.917969 20.585938c-.632813-.023438-1.164063.488281-1.164063 1.125v12.902343c0 .863281.953125 1.410157 1.699219.96875l10.917969-6.449219c.730468-.433593.730468-1.507812 0-1.941406l-10.917969-6.449218c-.160156-.097657-.34375-.152344-.535156-.15625zm-.007813.28125c.140625.003906.28125.042968.402344.117187l10.914062 6.449219c.558594.332031.558594 1.125 0 1.457031l-10.914062 6.449219c-.570312.335937-1.277344-.066406-1.277344-.726563v-12.902343c0-.480469.394532-.863282.875-.84375zm0 0" fill="#212121"/></svg>

<?xml version="1.0" encoding="UTF-8"?>
<svg xmlns="http://www.w3.org/2000/svg" xmlns:xlink="http://www.w3.org/1999/xlink" width="48pt" height="48pt" viewBox="0 0 48 48" version="1.1">
<defs>
<linearGradient id="linear0" gradientUnits="userSpaceOnUse" x1="254" y1="233.5" x2="254" y2="254.666672" gradientTransform="matrix(0.093759,0,0,0.093759,-0.00000572259,20.158175)">
<stop offset="0" style="stop-color:rgb(0%,0%,0%);stop-opacity:0.27451;"/>
<stop offset="1" style="stop-color:rgb(0%,0%,0%);stop-opacity:0;"/>
</linearGradient>
<radialGradient id="radial0" gradientUnits="userSpaceOnUse" cx="450.908936" cy="189.579361" fx="450.908936" fy="189.579361" r="21.166656" gradientTransform="matrix(0.000000261256,-0.117199,-0.210958,-0.000000152308,80.180537,95.392996)">
<stop offset="0" style="stop-color:rgb(0%,0%,0%);stop-opacity:0.313726;"/>
<stop offset="0.222222" style="stop-color:rgb(0%,0%,0%);stop-opacity:0.27451;"/>
<stop offset="1" style="stop-color:rgb(0%,0%,0%);stop-opacity:0;"/>
</radialGradient>
<radialGradient id="radial1" gradientUnits="userSpaceOnUse" cx="450.908936" cy="189.579361" fx="450.908936" fy="189.579361" r="21.166656" gradientTransform="matrix(-0.000000261256,0.117199,0.210958,0.000000152308,-32.550992,-11.291221)">
<stop offset="0" style="stop-color:rgb(0%,0%,0%);stop-opacity:0.313726;"/>
<stop offset="0.222222" style="stop-color:rgb(0%,0%,0%);stop-opacity:0.27451;"/>
<stop offset="1" style="stop-color:rgb(0%,0%,0%);stop-opacity:0;"/>
</radialGradient>
<radialGradient id="radial2" gradientUnits="userSpaceOnUse" cx="450.908936" cy="189.579361" fx="450.908936" fy="189.579361" r="21.166656" gradientTransform="matrix(-0.000000261256,-0.117199,0.210958,-0.000000152308,-32.550992,95.392996)">
<stop offset="0" style="stop-color:rgb(0%,0%,0%);stop-opacity:0.313726;"/>
<stop offset="0.222222" style="stop-color:rgb(0%,0%,0%);stop-opacity:0.27451;"/>
<stop offset="1" style="stop-color:rgb(0%,0%,0%);stop-opacity:0;"/>
</radialGradient>
<radialGradient id="radial3" gradientUnits="userSpaceOnUse" cx="450.908936" cy="189.579361" fx="450.908936" fy="189.579361" r="21.166656" gradientTransform="matrix(0.000000261256,0.117199,-0.210958,0.000000152308,80.180534,-11.291222)">
<stop offset="0" style="stop-color:rgb(0%,0%,0%);stop-opacity:0.313726;"/>
<stop offset="0.222222" style="stop-color:rgb(0%,0%,0%);stop-opacity:0.27451;"/>
<stop offset="1" style="stop-color:rgb(0%,0%,0%);stop-opacity:0;"/>
</radialGradient>
<linearGradient id="linear1" gradientUnits="userSpaceOnUse" x1="306.916656" y1="-25.791676" x2="305.954559" y2="-135.329163" gradientTransform="matrix(0.113024,0,0,0.326118,-8.78102,50.462022)">
<stop offset="0" style="stop-color:rgb(74.117649%,74.117649%,74.117649%);stop-opacity:1;"/>
<stop offset="1" style="stop-color:rgb(87.843138%,87.843138%,87.843138%);stop-opacity:1;"/>
</linearGradient>
<linearGradient id="linear2" gradientUnits="userSpaceOnUse" x1="306.916656" y1="-25.791676" x2="305.954559" y2="-135.329163" gradientTransform="matrix(4.556143,0,0,13.146184,-353.972656,2034.180176)">
<stop offset="0" style="stop-color:rgb(25.882354%,25.882354%,25.882354%);stop-opacity:1;"/>
<stop offset="1" style="stop-color:rgb(38.039216%,38.039216%,38.039216%);stop-opacity:1;"/>
</linearGradient>
<linearGradient id="linear3" gradientUnits="userSpaceOnUse" x1="349.25" y1="-158.083328" x2="349.25" y2="-115.75" gradientTransform="matrix(0.749999,0,0,0.749999,71.437767,-2.479259)">
<stop offset="0" style="stop-color:rgb(40.000001%,73.333335%,41.568628%);stop-opacity:1;"/>
<stop offset="1" style="stop-color:rgb(50.588238%,78.039217%,51.764709%);stop-opacity:1;"/>
</linearGradient>
<linearGradient id="linear4" gradientUnits="userSpaceOnUse" x1="349.25" y1="-158.083328" x2="349.25" y2="-115.75" gradientTransform="matrix(0.750001,0,0,0.750001,124.353661,-2.47902)">
<stop offset="0" style="stop-color:rgb(100%,83.529413%,30.980393%);stop-opacity:1;"/>
<stop offset="1" style="stop-color:rgb(100%,87.843138%,50.980395%);stop-opacity:1;"/>
</linearGradient>
<linearGradient id="linear5" gradientUnits="userSpaceOnUse" x1="349.25" y1="-158.083328" x2="349.25" y2="-115.75" gradientTransform="matrix(0.75,0,0,0.75,177.270798,-2.479186)">
<stop offset="0" style="stop-color:rgb(89.803922%,45.09804%,45.09804%);stop-opacity:1;"/>
<stop offset="1" style="stop-color:rgb(93.725491%,60.392159%,60.392159%);stop-opacity:1;"/>
</linearGradient>
<linearGradient id="linear6" gradientUnits="userSpaceOnUse" x1="254" y1="53.583332" x2="254" y2="-105.166656" gradientTransform="matrix(0.093759,0,0,0.093759,0.0353207,30.579875)">
<stop offset="0" style="stop-color:rgb(25.882354%,25.882354%,25.882354%);stop-opacity:1;"/>
<stop offset="1" style="stop-color:rgb(38.039216%,38.039216%,38.039216%);stop-opacity:1;"/>
</linearGradient>
</defs>
<g id="surface1">
<path style=" stroke:none;fill-rule:nonzero;fill:url(#linear0);" d="M 6.945312 42.050781 L 40.683594 42.050781 L 40.683594 44.035156 L 6.945312 44.035156 Z M 6.945312 42.050781 "/>
<path style=" stroke:none;fill-rule:nonzero;fill:url(#radial0);" d="M 40.683594 42.050781 L 44.652344 42.050781 L 44.652344 40.066406 L 40.683594 40.066406 Z M 40.683594 42.050781 "/>
<path style=" stroke:none;fill-rule:nonzero;fill:url(#radial1);" d="M 6.945312 42.050781 L 2.976562 42.050781 L 2.976562 44.035156 L 6.945312 44.035156 Z M 6.945312 42.050781 "/>
<path style=" stroke:none;fill-rule:nonzero;fill:url(#radial2);" d="M 6.945312 42.050781 L 2.976562 42.050781 L 2.976562 40.066406 L 6.945312 40.066406 Z M 6.945312 42.050781 "/>
<path style=" stroke:none;fill-rule:nonzero;fill:url(#radial3);" d="M 40.683594 42.050781 L 44.652344 42.050781 L 44.652344 44.035156 L 40.683594 44.035156 Z M 40.683594 42.050781 "/>
<path style=" stroke:none;fill-rule:nonzero;fill:url(#linear1);" d="M 4.960938 6.328125 L 42.667969 6.328125 C 43.765625 6.328125 44.652344 7.21875 44.652344 8.3125 L 44.652344 40.066406 C 44.652344 41.164062 43.765625 42.050781 42.667969 42.050781 L 4.960938 42.050781 C 3.867188 42.050781 2.976562 41.164062 2.976562 40.066406 L 2.976562 8.3125 C 2.976562 7.21875 3.867188 6.328125 4.960938 6.328125 Z M 4.960938 6.328125 "/>
<path style=" stroke:none;fill-rule:nonzero;fill:rgb(3.921569%,5.098039%,5.490196%);fill-opacity:0.235294;" d="M 2.976562 14.265625 L 44.652344 14.265625 L 44.652344 15.257812 L 2.976562 15.257812 Z M 2.976562 14.265625 "/>
<path style=" stroke:none;fill-rule:nonzero;fill:rgb(0%,0%,0%);fill-opacity:0.235294;" d="M 4.960938 42.070312 C 3.863281 42.070312 2.976562 41.183594 2.976562 40.085938 L 2.976562 39.570312 C 2.976562 40.667969 3.863281 41.554688 4.960938 41.554688 L 42.667969 41.554688 C 43.769531 41.554688 44.652344 40.667969 44.652344 39.570312 L 44.652344 40.085938 C 44.652344 41.183594 43.769531 42.070312 42.667969 42.070312 Z M 4.960938 42.070312 "/>
<path style="fill-rule:nonzero;fill:url(#linear2);stroke-width:11.338583;stroke-linecap:round;stroke-linejoin:miter;stroke:rgb(12.941177%,12.941177%,12.941177%);stroke-opacity:1;stroke-miterlimit:4;" d="M 199.980913 255.093763 C 155.733168 255.093763 119.988548 290.838383 119.988548 335.086129 L 119.988548 575.063225 L 1799.985685 575.063225 L 1799.985685 335.086129 C 1799.985685 290.838383 1764.39853 255.093763 1719.99332 255.093763 Z M 199.980913 255.093763 " transform="matrix(0.0248071,0,0,0.0248071,0,0)"/>
<path style=" stroke:none;fill-rule:nonzero;fill:rgb(100%,100%,100%);fill-opacity:0.392157;" d="M 4.960938 6.441406 C 3.863281 6.441406 2.976562 7.328125 2.976562 8.429688 L 2.976562 8.945312 C 2.976562 7.84375 3.863281 6.960938 4.960938 6.960938 L 42.667969 6.960938 C 43.769531 6.960938 44.652344 7.84375 44.652344 8.945312 L 44.652344 8.429688 C 44.652344 7.328125 43.769531 6.441406 42.667969 6.441406 Z M 4.960938 6.441406 "/>
<path style=" stroke:none;fill-rule:nonzero;fill:rgb(12.941177%,12.941177%,12.941177%);fill-opacity:1;" d="M 4.960938 6.1875 C 3.785156 6.1875 2.835938 7.136719 2.835938 8.3125 L 2.835938 40.066406 C 2.835938 41.242188 3.785156 42.191406 4.960938 42.191406 L 42.667969 42.191406 C 43.84375 42.191406 44.792969 41.242188 44.792969 40.066406 L 44.792969 8.3125 C 44.792969 7.136719 43.84375 6.1875 42.667969 6.1875 Z M 4.960938 6.46875 L 42.667969 6.46875 C 43.691406 6.46875 44.511719 7.289062 44.511719 8.3125 L 44.511719 40.066406 C 44.511719 41.089844 43.691406 41.910156 42.667969 41.910156 L 4.960938 41.910156 C 3.9375 41.910156 3.117188 41.089844 3.117188 40.066406 L 3.117188 8.3125 C 3.117188 7.289062 3.9375 6.46875 4.960938 6.46875 Z M 4.960938 6.46875 "/>
<path style="fill-rule:nonzero;fill:url(#linear3);stroke-width:3;stroke-linecap:round;stroke-linejoin:miter;stroke:rgb(12.941177%,12.941177%,12.941177%);stroke-opacity:1;stroke-miterlimit:4;" d="M 333.38483 -121.050638 C 342.133995 -121.050638 349.258314 -113.926319 349.258314 -105.177154 C 349.258314 -96.386327 342.133995 -89.30367 333.38483 -89.30367 C 324.594003 -89.30367 317.511346 -96.386327 317.511346 -105.177154 C 317.511346 -113.926319 324.594003 -121.050638 333.38483 -121.050638 Z M 333.38483 -121.050638 " transform="matrix(0.093759,0,0,0.093759,0,20.158175)"/>
<path style="fill-rule:nonzero;fill:url(#linear4);stroke-width:3;stroke-linecap:round;stroke-linejoin:miter;stroke:rgb(12.941177%,12.941177%,12.941177%);stroke-opacity:1;stroke-miterlimit:4;" d="M 386.296444 -121.050638 C 395.045608 -121.050638 402.169928 -113.926319 402.169928 -105.177154 C 402.169928 -96.386327 395.045608 -89.30367 386.296444 -89.30367 C 377.505617 -89.30367 370.42296 -96.386327 370.42296 -105.177154 C 370.42296 -113.926319 377.505617 -121.050638 386.296444 -121.050638 Z M 386.296444 -121.050638 " transform="matrix(0.093759,0,0,0.093759,0,20.158175)"/>
<path style="fill-rule:nonzero;fill:url(#linear5);stroke-width:3;stroke-linecap:round;stroke-linejoin:miter;stroke:rgb(12.941177%,12.941177%,12.941177%);stroke-opacity:1;stroke-miterlimit:4;" d="M 439.208058 -121.050638 C 447.957222 -121.050638 455.081542 -113.926319 455.081542 -105.177154 C 455.081542 -96.386327 447.957222 -89.30367 439.208058 -89.30367 C 430.458893 -89.30367 423.334574 -96.386327 423.334574 -105.177154 C 423.334574 -113.926319 430.458893 -121.050638 439.208058 -121.050638 Z M 439.208058 -121.050638 " transform="matrix(0.093759,0,0,0.093759,0,20.158175)"/>
<path style=" stroke:none;fill-rule:nonzero;fill:url(#linear6);" d="M 19.914062 20.726562 C 19.355469 20.707031 18.894531 21.152344 18.894531 21.710938 L 18.894531 34.613281 C 18.894531 35.375 19.726562 35.851562 20.382812 35.460938 L 31.296875 29.011719 C 31.945312 28.628906 31.945312 27.695312 31.296875 27.3125 L 20.382812 20.863281 C 20.242188 20.777344 20.078125 20.730469 19.914062 20.726562 Z M 19.914062 20.726562 "/>
<path style=" stroke:none;fill-rule:nonzero;fill:rgb(100%,100%,100%);fill-opacity:0.313726;" d="M 19.863281 20.722656 C 19.328125 20.734375 18.894531 21.171875 18.894531 21.710938 L 18.894531 22.203125 C 18.894531 21.644531 19.355469 21.195312 19.914062 21.214844 C 20.078125 21.222656 20.242188 21.269531 20.382812 21.351562 L 31.296875 27.800781 C 31.539062 27.945312 31.691406 28.167969 31.753906 28.40625 C 31.855469 28.003906 31.703125 27.550781 31.296875 27.3125 L 20.382812 20.863281 C 20.242188 20.777344 20.078125 20.730469 19.914062 20.726562 C 19.898438 20.722656 19.878906 20.722656 19.863281 20.722656 Z M 19.863281 20.722656 "/>
<path style=" stroke:none;fill-rule:nonzero;fill:rgb(0%,0%,0%);fill-opacity:0.235294;" d="M 19.863281 35.605469 C 19.328125 35.59375 18.894531 35.15625 18.894531 34.617188 L 18.894531 34.125 C 18.894531 34.683594 19.355469 35.132812 19.914062 35.113281 C 20.078125 35.105469 20.242188 35.058594 20.382812 34.976562 L 31.296875 28.527344 C 31.539062 28.382812 31.691406 28.160156 31.753906 27.921875 C 31.855469 28.324219 31.703125 28.777344 31.296875 29.015625 L 20.382812 35.464844 C 20.242188 35.550781 20.078125 35.597656 19.914062 35.601562 C 19.898438 35.605469 19.878906 35.605469 19.863281 35.605469 Z M 19.863281 35.605469 "/>
<path style=" stroke:none;fill-rule:nonzero;fill:rgb(12.941177%,12.941177%,12.941177%);fill-opacity:1;" d="M 19.917969 20.585938 C 19.285156 20.5625 18.753906 21.074219 18.753906 21.710938 L 18.753906 34.613281 C 18.753906 35.476562 19.707031 36.023438 20.453125 35.582031 L 31.371094 29.132812 C 32.101562 28.699219 32.101562 27.625 31.371094 27.191406 L 20.453125 20.742188 C 20.292969 20.644531 20.109375 20.589844 19.917969 20.585938 Z M 19.910156 20.867188 C 20.050781 20.871094 20.191406 20.910156 20.3125 20.984375 L 31.226562 27.433594 C 31.785156 27.765625 31.785156 28.558594 31.226562 28.890625 L 20.3125 35.339844 C 19.742188 35.675781 19.035156 35.273438 19.035156 34.613281 L 19.035156 21.710938 C 19.035156 21.230469 19.429688 20.847656 19.910156 20.867188 Z M 19.910156 20.867188 "/>
</g>
</svg>
